www/assets/icons/swipe_down.svg

<svg width="24" height="24" viewBox="0 0 24 24" xmlns="http://www.w3.org/2000/svg" fill='currentColor'><path d="M3.52229 12.1287C3.32229 11.2687 3.22229 10.3687 3.22229 9.44873C3.22229 6.60873 4.21229 3.99873 5.85229 1.94873L6.92229 3.01873C5.54229 4.79873 4.72229 7.02873 4.72229 9.44873C4.72229 10.3287 4.83229 11.1887 5.04229 12.0087L6.66229 10.3887L7.72229 11.4487L4.22229 14.9487L0.72229 11.4487L1.78229 10.3887L3.52229 12.1287ZM13.5723 11.5687L10.8923 6.19873C10.5223 5.45873 9.62229 5.15873 8.88229 5.52873C8.13229 5.90873 7.83229 6.80873 8.20229 7.54873L13.0123 17.1487L9.77229 17.9487C9.44229 18.0387 9.18229 18.2787 9.07229 18.6087L8.72229 19.7287L14.9123 21.9787C15.4123 22.1487 16.1923 21.9987 16.6623 21.7587L22.1723 19.0087C23.0623 18.5587 23.4923 17.5287 23.1723 16.5887L21.7423 12.3187C21.4723 11.4987 20.7023 10.9487 19.8423 10.9487H15.2823C14.9723 10.9487 14.6623 11.0187 14.3923 11.1587L13.5723 11.5687Z"/></svg>

<svg xmlns="http://www.w3.org/2000/svg" width="24" height="24" viewBox="0 0 24 24" fill='currentColor'><path d="M3.522 12.129c-.2-.86-.3-1.76-.3-2.68 0-2.84.99-5.45 2.63-7.5l1.07 1.07a10.46 10.46 0 0 0-1.88 8.99l1.62-1.62 1.06 1.06-3.5 3.5-3.5-3.5 1.06-1.06zm10.05-.56-2.68-5.37a1.5 1.5 0 0 0-2.01-.67c-.75.38-1.05 1.28-.68 2.02l4.81 9.6-3.24.8c-.33.09-.59.33-.7.66l-.35 1.12 6.19 2.25c.5.17 1.28.02 1.75-.22l5.51-2.75c.89-.45 1.32-1.48 1-2.42l-1.43-4.27a2 2 0 0 0-1.9-1.37h-4.56c-.31 0-.62.07-.89.21z"/></svg>
